panel/22/nm-signal-75.svg

<?xml version="1.0" encoding="UTF-8" standalone="no"?>
<!-- Created with Inkscape (http://www.inkscape.org/) -->

<svg
   xmlns:dc="http://purl.org/dc/elements/1.1/"
   xmlns:cc="http://creativecommons.org/ns#"
   xmlns:rdf="http://www.w3.org/1999/02/22-rdf-syntax-ns#"
   xmlns:svg="http://www.w3.org/2000/svg"
   xmlns="http://www.w3.org/2000/svg"
   xmlns:xlink="http://www.w3.org/1999/xlink"
   xmlns:inkscape="http://www.inkscape.org/namespaces/inkscape"
   version="1.0"
   width="22"
   height="22"
   id="svg3167">
  <metadata
     id="metadata20">
    <rdf:RDF>
      <cc:Work
         rdf:about="">
        <dc:format>image/svg+xml</dc:format>
        <dc:type
           rdf:resource="http://purl.org/dc/dcmitype/StillImage" />
      </cc:Work>
    </rdf:RDF>
  </metadata>
  <defs
     id="defs3169">
    <linearGradient
       id="linearGradient3587-8-5-3-2">
      <stop
         id="stop3589-2-7-0-1"
         style="stop-color:#000000;stop-opacity:1"
         offset="0" />
      <stop
         id="stop3591-3-5-2-8"
         style="stop-color:#363636;stop-opacity:1"
         offset="1" />
    </linearGradient>
    <linearGradient
       x1="66.09668"
       y1="9.3638258"
       x2="66.09668"
       y2="27.363825"
       id="linearGradient2395"
       xlink:href="#linearGradient3678"
       gradientUnits="userSpaceOnUse"
       gradientTransform="translate(-52.096803,-7.363826)" />
    <linearGradient
       x1="14"
       y1="3"
       x2="14"
       y2="21"
       id="linearGradient2398"
       xlink:href="#linearGradient3678"
       gradientUnits="userSpaceOnUse"
       gradientTransform="translate(-1.0001235,-1)" />
    <linearGradient
       x1="66.09668"
       y1="9.3638258"
       x2="66.09668"
       y2="27.363825"
       id="linearGradient2393"
       xlink:href="#linearGradient3587-8-5-3-2"
       gradientUnits="userSpaceOnUse"
       gradientTransform="translate(-51.09668,-6.363826)" />
    <linearGradient
       id="linearGradient3678">
      <stop
         id="stop3680"
         style="stop-color:#ffffff;stop-opacity:1"
         offset="0" />
      <stop
         id="stop3682"
         style="stop-color:#e6e6e6;stop-opacity:1"
         offset="1" />
    </linearGradient>
    <linearGradient
       x1="159.68553"
       y1="14.403693"
       x2="159.68553"
       y2="38.279892"
       id="linearGradient2388"
       xlink:href="#linearGradient3678"
       gradientUnits="userSpaceOnUse"
       gradientTransform="matrix(-0.4100229,0,0,0.5447147,78.029995,-3.8459034)" />
    <linearGradient
       x1="66.09668"
       y1="9.3638258"
       x2="66.09668"
       y2="27.363825"
       id="linearGradient3629"
       xlink:href="#linearGradient3678"
       gradientUnits="userSpaceOnUse"
       gradientTransform="translate(-52.096803,-7.363826)" />
  </defs>
  <path
     d="m 8.0435287,15.541611 c 0,0 0.562205,-0.852868 2.8734893,-0.879246 2.365793,-0.027 3.20342,1.042882 3.20342,1.042882 m -8.8420263,-3.14161 c 0,0 1.9182713,-1.960491 5.7037193,-1.885192 3.785448,0.0753 5.703718,1.978399 5.703718,1.978399"
     inkscape:connector-curvature="0"
     id="path2412"
     style="opacity:0.5;fill:none;stroke:#000000;stroke-width:1.62394822;stroke-linecap:butt;stroke-linejoin:miter;stroke-miterlimit:4;stroke-opacity:1;stroke-dasharray:none;stroke-dashoffset:0;marker:none;visibility:visible;display:inline;overflow:visible;enable-background:accumulate" />
  <path
     d="M 12.971363,18.223407 C 12.884814,18.304188 10.974534,20.5 10.974534,20.5 c 0,0 -1.8920905,-2.214367 -1.9630805,-2.276593 0.126866,-0.103143 0.644662,-0.508757 1.9672055,-0.502973 1.301354,0.0057 1.893585,0.402995 1.992704,0.502973 l 0,0 z"
     inkscape:connector-curvature="0"
     id="path3375-2"
     style="opacity:0.5;fill:#000000;fill-opacity:1;fill-rule:evenodd;stroke:none;overflow:visible" />
  <path
     d="M 13.146798,16.709046 C 13.052548,16.790336 10.972279,19 10.972279,19 c 0,0 -2.060461,-2.228336 -2.1377682,-2.290954 0.1381547,-0.103794 0.7020277,-0.511967 2.1422602,-0.506146 1.417157,0.0057 2.062088,0.405537 2.170027,0.506146 l 0,0 z"
     inkscape:connector-curvature="0"
     id="path3375"
     style="fill:url(#linearGradient2398);fill-opacity:1;fill-rule:evenodd;stroke:none;overflow:visible" />
  <path
     d="m 6.7706663,14.449448 c 0,0 1.0185042,-1.291002 4.1389787,-1.323908 3.081571,-0.0325 4.260671,1.323908 4.260671,1.323908 M 4.0564876,11.452688 c 0,0 2.2353716,-2.422385 6.9240644,-2.3362 4.727583,0.0869 6.924062,2.375106 6.924062,2.375106"
     inkscape:connector-curvature="0"
     id="path2406"
     style="fill:none;stroke:url(#linearGradient2395);stroke-width:1.70000005;stroke-linecap:butt;stroke-linejoin:miter;stroke-miterlimit:4;stroke-opacity:1;stroke-dasharray:none;stroke-dashoffset:0;marker:none;visibility:visible;display:inline;overflow:visible;enable-background:accumulate" />
  <g
     id="g3632"
     style="opacity:0.4">
    <path
       d="m 2.4362401,9.563637 c 0,0 2.5903476,-2.9927524 8.5458909,-2.9927524 5.955543,0 8.581382,2.9786954 8.581382,2.9786954"
       inkscape:connector-curvature="0"
       id="path3209-4"
       style="opacity:0.5;fill:none;stroke:#000000;stroke-width:1.62394822;stroke-linecap:butt;stroke-linejoin:miter;stroke-miterlimit:4;stroke-opacity:1;stroke-dasharray:none;stroke-dashoffset:0;marker:none;visibility:visible;display:inline;overflow:visible;enable-background:accumulate" />
    <path
       d="m 1.199,8.4137962 c 0,0 3.1038827,-3.4307802 9.781552,-3.4307802 6.64484,0 9.820202,3.4366024 9.820202,3.4366024"
       inkscape:connector-curvature="0"
       id="path3209"
       style="fill:none;stroke:url(#linearGradient3629);stroke-width:1.70000005;stroke-linecap:butt;stroke-linejoin:miter;stroke-miterlimit:4;stroke-opacity:1;stroke-dasharray:none;stroke-dashoffset:0;marker:none;visibility:visible;display:inline;overflow:visible;enable-background:accumulate" />
  </g>
</svg>

<?xml version="1.0" encoding="UTF-8" standalone="no"?>
<!-- Created with Inkscape (http://www.inkscape.org/) -->

<svg
   xmlns:dc="http://purl.org/dc/elements/1.1/"
   xmlns:cc="http://creativecommons.org/ns#"
   xmlns:rdf="http://www.w3.org/1999/02/22-rdf-syntax-ns#"
   xmlns:svg="http://www.w3.org/2000/svg"
   xmlns="http://www.w3.org/2000/svg"
   xmlns:xlink="http://www.w3.org/1999/xlink"
   xmlns:sodipodi="http://sodipodi.sourceforge.net/DTD/sodipodi-0.dtd"
   xmlns:inkscape="http://www.inkscape.org/namespaces/inkscape"
   version="1.0"
   width="22"
   height="22"
   id="svg3167"
   sodipodi:version="0.32"
   inkscape:version="0.47 r22583"
   sodipodi:docname="nm-signal-75.svg"
   inkscape:output_extension="org.inkscape.output.svg.inkscape">
  <metadata
     id="metadata20">
    <rdf:RDF>
      <cc:Work
         rdf:about="">
        <dc:format>image/svg+xml</dc:format>
        <dc:type
           rdf:resource="http://purl.org/dc/dcmitype/StillImage" />
      </cc:Work>
    </rdf:RDF>
  </metadata>
  <sodipodi:namedview
     inkscape:window-height="753"
     inkscape:window-width="1280"
     inkscape:pageshadow="2"
     inkscape:pageopacity="0.0"
     guidetolerance="10.0"
     gridtolerance="10.0"
     objecttolerance="10.0"
     borderopacity="1.0"
     bordercolor="#666666"
     pagecolor="#ffffff"
     id="base"
     showgrid="false"
     inkscape:zoom="7.3362329"
     inkscape:cx="-16.32527"
     inkscape:cy="12"
     inkscape:window-x="0"
     inkscape:window-y="24"
     inkscape:current-layer="svg3167"
     inkscape:window-maximized="1" />
  <defs
     id="defs3169">
    <linearGradient
       id="linearGradient3587-8-5-3-2">
      <stop
         id="stop3589-2-7-0-1"
         style="stop-color:#000000;stop-opacity:1"
         offset="0" />
      <stop
         id="stop3591-3-5-2-8"
         style="stop-color:#363636;stop-opacity:1"
         offset="1" />
    </linearGradient>
    <linearGradient
       x1="66.09668"
       y1="9.3638258"
       x2="66.09668"
       y2="27.363825"
       id="linearGradient2395"
       xlink:href="#linearGradient3678"
       gradientUnits="userSpaceOnUse"
       gradientTransform="translate(-52.096803,-7.363826)" />
    <linearGradient
       x1="14"
       y1="3"
       x2="14"
       y2="21"
       id="linearGradient2398"
       xlink:href="#linearGradient3678"
       gradientUnits="userSpaceOnUse"
       gradientTransform="translate(-1.0001235,-1)" />
    <linearGradient
       inkscape:collect="always"
       xlink:href="#linearGradient3587-8-5-3-2"
       id="linearGradient2393"
       gradientUnits="userSpaceOnUse"
       gradientTransform="translate(-51.09668,-6.363826)"
       x1="66.09668"
       y1="9.3638258"
       x2="66.09668"
       y2="27.363825" />
    <linearGradient
       id="linearGradient3678">
      <stop
         style="stop-color:#ffffff;stop-opacity:1;"
         offset="0"
         id="stop3680" />
      <stop
         style="stop-color:#e6e6e6;stop-opacity:1;"
         offset="1"
         id="stop3682" />
    </linearGradient>
    <linearGradient
       gradientTransform="matrix(-0.4100229,0,0,0.5447147,78.029995,-3.8459034)"
       gradientUnits="userSpaceOnUse"
       xlink:href="#linearGradient3678"
       id="linearGradient2388"
       y2="38.279892"
       x2="159.68553"
       y1="14.403693"
       x1="159.68553" />
    <linearGradient
       inkscape:collect="always"
       xlink:href="#linearGradient3678"
       id="linearGradient3629"
       gradientUnits="userSpaceOnUse"
       gradientTransform="translate(-52.096803,-7.363826)"
       x1="66.09668"
       y1="9.3638258"
       x2="66.09668"
       y2="27.363825" />
  </defs>
  <path
     d="M 8.0435287,15.541611 C 8.0435287,15.541611 8.6057337,14.688743 10.917018,14.662365 C 13.282811,14.635365 14.120438,15.705247 14.120438,15.705247 M 5.2784117,12.563637 C 5.2784117,12.563637 7.196683,10.603146 10.982131,10.678445 C 14.767579,10.753745 16.685849,12.656844 16.685849,12.656844"
     id="path2412"
     style="opacity:0.5;fill:none;stroke:#000000;stroke-width:1.62394821999999994;stroke-linecap:butt;stroke-linejoin:miter;marker:none;stroke-miterlimit:4;stroke-dasharray:none;stroke-dashoffset:0;stroke-opacity:1;visibility:visible;display:inline;overflow:visible;enable-background:accumulate" />
  <path
     d="M 12.971363,18.223407 C 12.884814,18.304188 10.974534,20.5 10.974534,20.5 C 10.974534,20.5 9.0824435,18.285633 9.0114535,18.223407 C 9.1383195,18.120264 9.6561155,17.71465 10.978659,17.720434 C 12.280013,17.726134 12.872244,18.123429 12.971363,18.223407 L 12.971363,18.223407 z"
     id="path3375-2"
     style="opacity:0.5;fill:#000000;fill-opacity:1;fill-rule:evenodd;stroke:none;overflow:visible" />
  <path
     d="M 13.146798,16.709046 C 13.052548,16.790336 10.972279,19 10.972279,19 C 10.972279,19 8.911818,16.771664 8.8345108,16.709046 C 8.9726655,16.605252 9.5365385,16.197079 10.976771,16.2029 C 12.393928,16.2086 13.038859,16.608437 13.146798,16.709046 L 13.146798,16.709046 z"
     id="path3375"
     style="opacity:1;fill:url(#linearGradient2398);fill-opacity:1;fill-rule:evenodd;stroke:none;overflow:visible" />
  <path
     d="M 6.7706663,14.449448 C 6.7706663,14.449448 7.7891705,13.158446 10.909645,13.12554 C 13.991216,13.09304 15.170316,14.449448 15.170316,14.449448 M 4.0564876,11.452688 C 4.0564876,11.452688 6.2918592,9.030303 10.980552,9.116488 C 15.708135,9.203388 17.904614,11.491594 17.904614,11.491594"
     id="path2406"
     style="opacity:1;fill:none;stroke:url(#linearGradient2395);stroke-width:1.70000005000000010;stroke-linecap:butt;stroke-linejoin:miter;marker:none;stroke-miterlimit:4;stroke-dasharray:none;stroke-dashoffset:0;stroke-opacity:1;visibility:visible;display:inline;overflow:visible;enable-background:accumulate" />
  <g
     id="g3632"
     style="opacity:0.4">
    <path
       d="m 2.4362401,9.563637 c 0,0 2.5903476,-2.9927524 8.5458909,-2.9927524 5.955543,0 8.581382,2.9786954 8.581382,2.9786954"
       id="path3209-4"
       style="opacity:0.50000000000000000;fill:none;stroke:#000000;stroke-width:1.62394821999999994;stroke-linecap:butt;stroke-linejoin:miter;stroke-miterlimit:4;stroke-opacity:1;stroke-dasharray:none;stroke-dashoffset:0;marker:none;visibility:visible;display:inline;overflow:visible;enable-background:accumulate" />
    <path
       d="m 1.199,8.4137962 c 0,0 3.1038827,-3.4307802 9.781552,-3.4307802 6.64484,0 9.820202,3.4366024 9.820202,3.4366024"
       id="path3209"
       style="opacity:1;fill:none;stroke:url(#linearGradient3629);stroke-width:1.70000005000000010;stroke-linecap:butt;stroke-linejoin:miter;stroke-miterlimit:4;stroke-opacity:1;stroke-dasharray:none;stroke-dashoffset:0;marker:none;visibility:visible;display:inline;overflow:visible;enable-background:accumulate" />
  </g>
</svg>
